X:10373
T:Marre de ramer
R:Schottische
O:France
M:C
C:Jean Blanchard
K:G
B2G2A2Bc|B2G2A4|d^cde d=cBA|1GABcB2G2:|2GABAG4|:\
c3B AGAB|c2cd cBAG|c3B AGAB|c2B2A4:|
